X:20010
T:Tommy Beadle's Polka
R:Polka
C:Trad.
S:Pete Coe
O:England, Northumberland
M:4/4
L:1/8
Q:1/4=140
K:D
"D"AB de f2 fd|"G"g2 ge "D"f2 f2|"A"f2 ef ge ce|"D"e2 dc de dB|
"D"AB de f2 fd|"G"g2 ge "D"f2 f2|"A"f2 ef ge ce|1 "D"e2 d2 d4:|2 "D"e2 dc de fg|:
"D"aA (3AAA AF Ad|"G"B2 AF "D"A2 f2|"A"f2 ef ge ce|"D"e2 dc de fg|
"D"aA (3AAA AF Ad|"G"B2 AF "D"A2 f2|"A"f2 ef ge ce|1 "D"e2 dc de fg:|2 "D"e2 dc d4|

